X:244041
T:Loudon's Bonnie Woods and Braes (+Brass)
H: 
C: R. A. Smith (1805) or Duncan MacIntrye (<1807)
B: The Book of Scottish Songs (1843).  Scots Guard I(173)
S:Matthew Betham MS, Towcett Cumbria, 1815
O:England;Cumbria;Towcett
O:Arranged by Kevin Fraser
O:Transcribed by Kevin Fraser
Z:Kevin Fraser
Q:1/4=132
K:HP
M:4/4
L:1/8
R:Strathspey
U: R = ///
U: r = //
U: V = !accent!
V:M gstem=up stem=down name="Melody" sname="Melody" transpose=2
V:H gstem=up stem=down name="Harmony" sname="Harmony" transpose=2
V:C gstem=up stem=down name="C-Harmony" sname="C-Harmony" transpose=2
V:S gstem=up stem=down dyn=up stafflines=1 clef=perc middle=G name="Snare" sname="Snare" sname="Snare"
V:B gstem=up stem=down clef=none dyn=up name="Bass" sname="Bass"
V:T gstem=up stem=down clef=none dyn=up name="Tenor" sname="Tenor"
V:Tuba clef=bass octave=-2 transpose=2 name="Tuba" sname="Tuba"
V:BC clef=treble transpose=2 name="Brass Chord" sname="Chord 1" 
V:Trombone clef=treble transpose=2 name="Trombone" sname="Trombone" 
V:BD clef=treble transpose=2 name="Brass Chord 2" sname="Chord 2" 
V:Trumpet clef=treble transpose=2 name="Trumpet" sname="Trumpet" 
% %MIDI gchord 
%%MIDI gracedivider 40
I:linebreak $
% %score {M H Trumpet Trombone Tuba}
%%MIDI vol 100
V:M
%%MIDI program 109
V:Tuba
%%MIDI program 59
V:Trumpet
%%MIDI program 66
V:Trombone
%%MIDI program 58
% %score {M}
[V:M]   A/	 |: {Gdc}d2  {gdG}d2  {g}f<a   {g}a2       | {f}g>e {gfg}f>d {gef}e>d  {gcd}c<{e}A | {Gdc}d2  {gdG}d2  {g}f<a   {g}a2       | {g}B/c/d {gcd}c<{e}A {Gdc}d2 {gdG}d>A  :| $
[V:M]        	   |: {Gdc}d>e {gfg}f>d {gef}e>d {gcd}c<{e}A | {g}B>c {Gdc}d>c {g}B>{d}c {e}A>B      | {Gdc}d>e {gfg}f>d {gef}e>d {gcd}c<{e}A | {g}B/c/d {gcd}c<{e}A {Gdc}d2          [1  {gdG}d>A [2 {gdG}d2 :|| $
[V:Tuba][K:Amix]     z/  |: D2       D2       A2       A2          | G2     F2       E2        A2          | D2       D2       A2       A2          | B2       C2          D2      D2        :| $
w: Tuba | Notes In | Bagpipe | Key !!
[V:Tuba]         |: D2       F2       E2       A2          | B2     D2       B2        A2          | D2       F2       E2       A2          | B2       C2          D2      D2       :|| $
[V:Trumpet][K:Amix]  z/  |: z2       A2       z2       E2          | D2     C2       B2        E2          | z2       A2       z2       E2          | F2       G2          A2      A2        :| $
[V:Trumpet]      |: z2       E2       z2       A2          | z2     E2       z2        E2          | z2       E2       z2       A2          | z2       A2          E2      E2        :| $
[V:Trombone][K:Amix] z/  |: z2       F2       z2       C2          | B2     A2       G2        C2          | z2       F2       z2       C2                 | D2       E2          F2      F2        :| $
[V:Trombone]     |: z2       A2       G2      C2              | z2     F2       z2        C2          | z2       A2       G2      C2              | D2       E2          F2      F2        :| $



